X: 215
T: Arthur Darley's Swedish Jig
T: Bruckless Shore
C:Arthur Darley
R:jig
M:6/8
L:1/8
K:D
|:"D"A3 AGF|
M:9/8
"A"EDC "D"D3 d2e|
M:6/8
fgf "A"edc|"D"d3 d2e|!
fgf "A"edc|"D"dAA "G"BAG|"D"FED "A"EDC|"D"DA,B, "A"CDE|!
"D"Ddd "A"Aee|"D"Aff "A7(G)"Agg|"D"fed "A"edc|1"D"d2d dcB:|2"Dm"d2d d=c_B:|!
|:"Dm"A=ff fef|A=ff fef|A=ff "Gm"Agg|"Dm"Aaa "Gm"A_bb|!
"Dm"A=ff fef|A=ff f2g|=fed "A"ed^c|1"Dm"d2d d=c_B:|2 "D"d2d d2e|!
|:"D"fgf "A"edc|"D"dAA BAG|FED "A"EDC|"D"DA,B, "A"CDE|!
"D"Ddd "A"Aee|"D"Aff "A7(G)"Agg|"D"fed "A"edc|1"D"d3 d2e:|2d3 dcB|!


